img/icons/marker1Vavil.svg

<svg id="Layer_1" enable-background="new 0 0 512 512" height="512" viewBox="0 0 512 512" width="512" xmlns="http://www.w3.org/2000/svg"><g><g><path d="m489.5 467h-97v-26.106l5.776-23.105c.56-2.24.057-4.614-1.365-6.435-1.108-1.419-2.679-2.37-4.411-2.724v-61.804c0-1.895-.509-3.747-1.469-5.351l-12.632-21.141c-1.808-3.027-4.947-4.834-8.399-4.834s-6.592 1.807-8.398 4.832l-12.63 21.138c-.198.332-.365.679-.524 1.03h-12.948v-171.674c0-1.895-.509-3.747-1.469-5.351l-12.632-21.141c-1.808-3.027-4.947-4.834-8.399-4.834s-6.592 1.807-8.398 4.832l-6.925 11.59-7.671-33.462c-.926-4.037-4.948-6.557-8.986-5.635-4.037.926-6.561 4.949-5.635 8.986l9.327 40.689h-7.159c-.159-.349-.324-.695-.522-1.025l-12.632-21.141c-1.808-3.027-4.947-4.834-8.399-4.834s-6.592 1.807-8.398 4.832l-12.63 21.138c-.198.332-.365.679-.524 1.03h-7.159l24.377-106.342 4.335-2.28 4.335 2.279 7.971 34.772c.797 3.474 3.886 5.826 7.304 5.826.555 0 1.119-.062 1.683-.191 4.037-.926 6.561-4.949 5.635-8.986l-7.097-30.961c3.64-2.708 5.425-7.149 4.657-11.633l-1.357-7.914 5.749-5.604c3.289-3.207 4.45-7.912 3.03-12.281-1.419-4.368-5.124-7.492-9.67-8.153l-7.943-1.154-3.552-7.199c-2.035-4.119-6.152-6.679-10.746-6.679s-8.711 2.56-10.742 6.678l-3.553 7.2-7.944 1.154c-4.545.661-8.25 3.785-9.669 8.153-1.42 4.369-.259 9.074 3.03 12.281l5.749 5.604-1.358 7.916c-.767 4.481 1.018 8.922 4.658 11.631l-21.847 95.305-6.924-11.588c-1.808-3.027-4.947-4.834-8.399-4.834s-6.592 1.807-8.398 4.832l-12.63 21.138c-.963 1.609-1.472 3.461-1.472 5.355v52.738c0 4.142 3.357 7.5 7.5 7.5s7.5-3.358 7.5-7.5v-12.063h129v107.576c-1.857-2.257-4.561-3.576-7.5-3.576-3.452 0-6.592 1.807-8.398 4.832l-12.63 21.138c-.198.332-.365.679-.524 1.03h-13.894c-.159-.349-.324-.695-.522-1.025l-12.632-21.141c-1.808-3.027-4.947-4.834-8.399-4.834s-6.592 1.807-8.398 4.832l-12.63 21.138c-.198.332-.365.679-.524 1.03h-13.894c-.159-.349-.324-.695-.522-1.025l-12.632-21.141c-1.808-3.027-4.947-4.834-8.399-4.834-2.939 0-5.644 1.32-7.5 3.576v-63.076c0-4.142-3.357-7.5-7.5-7.5s-7.5 3.358-7.5 7.5v86.5h-12.947c-.159-.349-.324-.695-.522-1.025l-12.632-21.141c-1.808-3.027-4.947-4.834-8.399-4.834s-6.592 1.807-8.398 4.832l-12.63 21.138c-.963 1.609-1.472 3.461-1.472 5.355v61.804c-1.732.354-3.303 1.305-4.411 2.724-1.422 1.82-1.925 4.194-1.365 6.435l5.776 23.105v26.107h-97c-12.409 0-22.503 10.093-22.503 22.5s10.094 22.5 22.5 22.5h467c12.406 0 22.5-10.093 22.5-22.5s-10.094-22.5-22.5-22.5zm-355-79.5h243v20.97h-243zm228-39.427 7.5-12.552 7.5 12.552v24.427h-15zm-15 24.427h-12v-15h12zm-102.066-344.006c3.902-.567 7.274-3.018 9.02-6.554l1.546-3.134 1.547 3.134c1.745 3.537 5.117 5.987 9.02 6.554l3.46.503-2.505 2.442c-2.823 2.752-4.111 6.716-3.444 10.604l.591 3.446-3.095-1.627c-3.489-1.834-7.656-1.833-11.149.001l-3.092 1.626.592-3.447c.666-3.886-.622-7.85-3.445-10.603l-2.505-2.441zm-53.934 143.579 7.5-12.552 7.5 12.552v24.427h-15zm30 9.427h12v15h-12zm27-9.427 7.5-12.552 7.5 12.552v24.427h-15zm30 9.427h12v15h-12zm27 15v-24.427l7.5-12.552 7.5 12.552v24.427zm0 151.573 7.5-12.552 7.5 12.552v24.427h-15zm-15 24.427h-12v-15h12zm-42-24.427 7.5-12.552 7.5 12.552v24.427h-15zm-15 24.427h-12v-15h12zm-34.5-36.979 7.5 12.552v24.427h-15v-24.427zm-22.5 36.979h-12v-15h12zm-42-24.427 7.5-12.552 7.5 12.552v24.427h-15zm0 99.397h185.885c4.143 0 7.5-3.358 7.5-7.5s-3.357-7.5-7.5-7.5h-187.53l-2.25-9h250.789l-2.25 9h-26.554c-4.143 0-7.5 3.358-7.5 7.5s3.357 7.5 7.5 7.5h24.91v19.53h-243zm355 49.53h-467c-4.136 0-7.5-3.364-7.5-7.5s3.364-7.5 7.5-7.5h467c4.136 0 7.5 3.364 7.5 7.5s-3.364 7.5-7.5 7.5z"/><path d="m256 312.395c25.641 0 46.5-20.86 46.5-46.5s-20.859-46.5-46.5-46.5-46.5 20.86-46.5 46.5 20.859 46.5 46.5 46.5zm0-78c17.369 0 31.5 14.131 31.5 31.5s-14.131 31.5-31.5 31.5-31.5-14.131-31.5-31.5 14.131-31.5 31.5-31.5z"/></g></g></svg>

<?xml version="1.0" encoding="UTF-8" standalone="no"?>
<!DOCTYPE svg PUBLIC "-//W3C//DTD SVG 1.1//EN" "http://www.w3.org/Graphics/SVG/1.1/DTD/svg11.dtd">
<svg width="100%" height="100%" viewBox="0 0 121 363" version="1.1" xmlns="http://www.w3.org/2000/svg" xmlns:xlink="http://www.w3.org/1999/xlink" xml:space="preserve" xmlns:serif="http://www.serif.com/" style="fill-rule:evenodd;clip-rule:evenodd;stroke-linecap:round;stroke-linejoin:round;stroke-miterlimit:1.5;">
    <g transform="matrix(1,0,0,1,-46.1682,-0.0001)">
        <g transform="matrix(0.760872,0,0,0.760872,-431.617,-127.421)">
            <g transform="matrix(1,0,0,1,-30.1176,152.261)">
                <path d="M669.987,482.58L664.496,184.243L679.555,157.472L701.307,177.55L726.405,67.119L734.771,30.308L750.268,73.73L776.101,185.315L794.523,163.384L812.068,187.069L811.529,483.296L669.987,482.58Z" style="fill:rgb(204,153,102);"/>
                <g transform="matrix(0.453867,0,0,1.0189,405.662,148.899)">
                    <path d="M771.725,253.465L696.431,253.465L675.009,323.095L796.631,323.095L771.725,253.465Z" style="fill:rgb(205,6,20);stroke:black;stroke-width:22.62px;"/>
                </g>
                <g transform="matrix(1,0,0,1,481.561,15.2061)">
                    <path d="M320.501,476.144L335.5,476.144L335.5,170.826C335.5,168.931 334.991,167.079 334.031,165.475L321.399,144.334C319.591,141.307 316.452,139.5 313,139.5C309.548,139.5 306.408,141.307 304.602,144.332L297.677,155.922L287.428,111.204C286.502,107.167 271.775,108.729 272.701,112.766L284.712,166.5L277.553,166.5C277.394,166.151 277.229,165.805 277.031,165.475L264.399,144.334C262.591,141.307 259.452,139.5 256,139.5C252.548,139.5 249.408,141.307 247.602,144.332L234.972,165.47C234.774,165.802 234.607,166.149 234.448,166.5L227.289,166.5L256.001,31.6L275.595,125.711L289.977,122.325C289.977,122.325 260.594,0 256,0C251.406,0 214.324,155.922 214.324,155.922L207.4,144.334C205.592,141.307 202.453,139.5 199.001,139.5C195.549,139.5 192.409,141.307 190.603,144.332L177.973,165.47C177.01,167.079 176.501,168.931 176.501,170.825L176.501,476.144L320.501,476.144L320.501,460.454L191.501,460.454L191.501,211.5L320.501,211.5L320.501,476.144ZM191.5,172.073L199,159.521L206.5,172.073L206.5,196.5L191.5,196.5L191.5,172.073ZM221.5,181.5L233.5,181.5L233.5,196.5L221.5,196.5L221.5,181.5ZM248.5,172.073L256,159.521L263.5,172.073L263.5,196.5L248.5,196.5L248.5,172.073ZM278.5,181.5L290.5,181.5L290.5,196.5L278.5,196.5L278.5,181.5ZM305.5,196.5L305.5,172.073L313,159.521L320.5,172.073L320.5,196.5L305.5,196.5Z" style="fill-rule:nonzero;"/>
                </g>
                <g transform="matrix(0.453867,0,0,0.508131,405.283,140.733)">
                    <rect x="698.173" y="247.801" width="75.294" height="75.294" style="fill:none;stroke:black;stroke-width:26.49px;"/>
                </g>
            </g>
        </g>
        <g transform="matrix(0.760872,0,0,0.760872,-431.617,-127.421)">
            <g transform="matrix(0.951526,1.73818e-16,-2.33057e-16,0.709664,553.413,186.281)">
                <path d="M135.157,51.879C135.464,37.441 147.281,25.814 161.793,25.814C176.304,25.814 188.122,37.441 188.429,51.879L135.157,51.879Z" style="fill:rgb(204,153,102);stroke:black;stroke-width:12.49px;"/>
            </g>
        </g>
    </g>
</svg>
